packages/icons/svg/Navigation_Display_VocalSearch_64px.svg

<svg xmlns="http://www.w3.org/2000/svg" viewBox="0 0 64 64"><path d="M32 43a11 11 0 0011-11V16a11 11 0 00-22 0v16a11 11 0 0011 11zm-8-27a8 8 0 0116 0v16a8 8 0 01-16 0z"/><path d="M49.5 21a1.5 1.5 0 00-1.5 1.5V32a16 16 0 01-32 0v-9.5a1.5 1.5 0 00-3 0V32a19 19 0 0017.5 18.92V56h-7a1.5 1.5 0 000 3h17a1.5 1.5 0 000-3h-7v-5.08A19 19 0 0051 32v-9.5a1.5 1.5 0 00-1.5-1.5z"/></svg>

<svg xmlns="http://www.w3.org/2000/svg" viewBox="0 0 64 64"><defs></defs><g id="Icon"><path  d="M32,43A11,11,0,0,0,43,32V16a11,11,0,0,0-22,0V32A11,11,0,0,0,32,43ZM24,16a8,8,0,0,1,16,0V32a8,8,0,0,1-16,0Z"/><path  d="M49.5,21A1.5,1.5,0,0,0,48,22.5V32a16,16,0,0,1-32,0V22.5a1.5,1.5,0,0,0-3,0V32A19,19,0,0,0,30.5,50.92V56h-7a1.5,1.5,0,0,0,0,3h17a1.5,1.5,0,0,0,0-3h-7V50.92A19,19,0,0,0,51,32V22.5A1.5,1.5,0,0,0,49.5,21Z"/></g></svg>
